assets/svg/app/migrate.svg

<svg width="15" height="22" viewBox="0 0 15 22" fill="none" xmlns="http://www.w3.org/2000/svg">
<path d="M12.4787 16.5517L11.2162 17.8141L9.87772 19.1526C9.53307 19.4973 9.23802 19.7962 9.0154 20.0257C9.08912 20.1027 9.16751 20.1837 9.24669 20.2649C9.31726 20.3372 9.38775 20.4088 9.4554 20.477C9.53581 20.3979 9.62462 20.3103 9.72091 20.2151C10.1935 19.748 10.842 19.1032 11.5532 18.3934C11.5533 18.3933 11.5533 18.3933 11.5533 18.3933M12.4787 16.5517L12.0581 13.5833C14.1288 15.654 14.659 16.2017 14.659 16.2603C14.659 16.3188 14.1288 16.8636 12.0757 18.9167L11.5533 18.3933M12.4787 16.5517L10.6933 16.5517L5.34811 16.5517L0.742447 16.5517L0.742447 16.2603L0.742447 15.9688L5.34811 15.9688L10.6933 15.9688L12.4786 15.9688L11.2162 14.7064L9.87876 13.3689C9.8786 13.3687 9.87844 13.3686 9.87828 13.3684C9.54252 13.0313 9.23536 12.7191 9.00208 12.4786C9.09433 12.3839 9.20122 12.2756 9.31538 12.1614L9.45175 12.025L11.5352 14.1062L12.4787 16.5517ZM11.5533 18.3933C12.5803 17.3663 13.2222 16.7207 13.6071 16.3249C13.6292 16.3023 13.6503 16.2805 13.6705 16.2596M11.5533 18.3933L13.6705 16.2596M13.6705 16.2596C13.8273 16.4219 13.9294 16.5307 13.992 16.6009C14.0272 16.6403 14.0403 16.6568 14.0413 16.658L14.0413 16.6581C14.0405 16.657 14.0372 16.6526 14.0325 16.6456C14.028 16.6391 14.0195 16.6261 14.0093 16.6082C14.0001 16.592 13.9826 16.5595 13.9657 16.515C13.9518 16.4783 13.9195 16.3852 13.9195 16.2603C13.9195 16.1352 13.9519 16.042 13.9659 16.0051C13.9828 15.9604 14.0004 15.9278 14.0097 15.9116C14.0199 15.8936 14.0285 15.8806 14.033 15.874C14.0378 15.867 14.0411 15.8626 14.042 15.8614L14.0419 15.8615C14.0407 15.863 14.0277 15.8794 13.993 15.9182C13.9302 15.9883 13.8279 16.0971 13.6705 16.2596ZM13.6705 16.2596C13.6495 16.2379 13.6275 16.2152 13.6045 16.1915C13.2176 15.7929 12.5713 15.1422 11.5355 14.1065L13.6705 16.2596ZM8.61356 20.4528C8.61366 20.4526 8.61377 20.4525 8.61388 20.4524C8.6132 20.4532 8.61284 20.4537 8.61286 20.4536C8.61287 20.4536 8.6131 20.4533 8.61356 20.4528ZM3.44863 4.22687L2.18618 5.48931L3.97154 5.48931L9.31672 5.48931L13.9165 5.4893L13.9165 5.78076L13.9165 6.07221L9.31086 6.07221L3.96568 6.07221L2.18031 6.07221L3.44277 7.33465L4.78126 8.67312C5.1257 9.01756 5.42059 9.31631 5.64317 9.54578C5.5693 9.62278 5.49077 9.70388 5.41145 9.78509C5.34081 9.8574 5.27025 9.92909 5.20252 9.99734C5.12202 9.91819 5.03312 9.83058 4.93676 9.7354C4.46403 9.2685 3.81568 8.62381 3.10618 7.91431C2.0791 6.88723 1.43697 6.2407 1.05208 5.84458C1.03083 5.82271 1.01045 5.80169 0.990904 5.78149C1.01185 5.75988 1.03376 5.73733 1.05667 5.71381C1.44546 5.3145 2.0936 4.66268 3.1296 3.62668L5.21308 1.54554L5.34945 1.68192L5.35158 1.68403C5.46587 1.79739 5.57274 1.90513 5.66476 1.99927C5.43153 2.23966 5.12375 2.55176 4.78712 2.8884L3.44863 4.22687Z" fill="#31D8A4" stroke="#31D8A4" stroke-width="1.47903"/>
</svg>

<svg width="15" height="22" fill="none" xmlns="http://www.w3.org/2000/svg">
    <path d="m12.479 16.552-1.263 1.262-1.338 1.339c-.345.344-.64.643-.863.873a36.688 36.688 0 0 0 .44.451l.266-.262c.473-.467 1.121-1.112 1.832-1.822m.926-1.841-.42-2.969c2.07 2.071 2.6 2.619 2.6 2.677 0 .059-.53.604-2.583 2.657l-.523-.524m.926-1.841H.742v-.583H12.48l-1.263-1.263L9.88 13.37c-.336-.338-.644-.65-.877-.89.092-.095.2-.203.313-.318l.137-.136 2.083 2.081.944 2.446Zm-.926 1.841a245.97 245.97 0 0 0 2.117-2.133m-2.117 2.133 2.117-2.133m0 0c.157.162.26.27.322.34l.05.058-.01-.012a.528.528 0 0 1-.066-.131.72.72 0 0 1 .067-.641l.009-.013a13.21 13.21 0 0 1-.371.398Zm0 0a229.692 229.692 0 0 0-2.135-2.153l2.136 2.153Zm-5.056 4.193h-.001ZM3.449 4.227 2.186 5.489h11.731v.583H2.18l1.263 1.263L4.78 8.673c.345.345.64.643.862.873a37.476 37.476 0 0 1-.44.451A439.893 439.893 0 0 1 .99 5.781l.066-.067c.388-.4 1.037-1.051 2.073-2.087l2.083-2.081.136.136.003.002c.114.113.22.221.313.315-.233.24-.541.553-.878.89L3.45 4.226Z" fill="#31D8A4" stroke="#31D8A4" stroke-width="1.479"/>
</svg>
